common/src/main/resources/icons/actions/moveToStandardPlace.svg

<svg xmlns="http://www.w3.org/2000/svg" width="16" height="16" fill="#BDBDBD" data-big="true" viewBox="0 0 24 24"><path d="M14 17h4v-3l5 4.5-5 4.5v-3h-4zm-1-8h5.5L13 3.5zM6 2h8l6 6v4.34c-.63-.22-1.3-.34-2-.34a6 6 0 0 0-6 6c0 1.54.58 2.94 1.53 4H6a2 2 0 0 1-2-2V4a2 2 0 0 1 2-2"/></svg>

<!--
  - The MIT License (MIT)
  -
  - Copyright (c) 2015-2024 Elior "Mallowigi" Boukhobza
  -
  - Permission is hereby granted, free of charge, to any person obtaining a copy
  - of this software and associated documentation files (the "Software"), to deal
  - in the Software without restriction, including without limitation the rights
  - to use, copy, modify, merge, publish, distribute, sublicense, and/or sell
  - copies of the Software, and to permit persons to whom the Software is
  - furnished to do so, subject to the following conditions:
  -
  - The above copyright notice and this permission notice shall be included in all
  - copies or substantial portions of the Software.
  -
  - THE SOFTWARE IS PROVIDED "AS IS", WITHOUT WARRANTY OF ANY KIND, EXPRESS OR
  - IMPLIED, INCLUDING BUT NOT LIMITED TO THE WARRANTIES OF MERCHANTABILITY,
  - FITNESS FOR A PARTICULAR PURPOSE AND NONINFRINGEMENT. IN NO EVENT SHALL THE
  - AUTHORS OR COPYRIGHT HOLDERS BE LIABLE FOR ANY CLAIM, DAMAGES OR OTHER
  - LIABILITY, WHETHER IN AN ACTION OF CONTRACT, TORT OR OTHERWISE, ARISING FROM,
  - OUT OF OR IN CONNECTION WITH THE SOFTWARE OR THE USE OR OTHER DEALINGS IN THE
  - SOFTWARE.
  -->


<svg data-big="true" xmlns="http://www.w3.org/2000/svg" version="1.1" width="16px" height="16px" viewBox="0 0 24 24"
     fill="#BDBDBD">
  <path
    d="M14,17H18V14L23,18.5L18,23V20H14V17M13,9H18.5L13,3.5V9M6,2H14L20,8V12.34C19.37,12.12 18.7,12 18,12A6,6 0 0,0 12,18C12,19.54 12.58,20.94 13.53,22H6C4.89,22 4,21.1 4,20V4A2,2 0 0,1 6,2Z"/>
</svg>
